packages/tokens/icons/earth/size24Px.svg

<svg viewBox="0 0 24 24" fill="none" xmlns="http://www.w3.org/2000/svg" width="1em" height="1em"><circle cx="12" cy="12" r="9.5" stroke="currentColor"/><path d="M6.89772 8.423L6.8946 8.38989L6.88712 8.35748C6.6798 7.4587 6.2021 6.64841 5.52279 6.03331C5.54014 5.99531 5.55987 5.95412 5.58223 5.91013C5.71835 5.64225 5.95117 5.27109 6.33209 4.88227C7.06774 4.13133 8.38938 3.28023 10.7282 3.01646C10.7309 3.02826 10.7337 3.04118 10.7364 3.05529C10.7756 3.2601 10.7796 3.52792 10.7799 3.77228C10.6735 4.35332 10.7583 4.95376 11.0225 5.48314L11.0345 5.50707L11.0489 5.52958C11.3927 6.06624 11.944 6.15025 12.3425 6.16812C12.4536 6.17309 12.5942 6.17324 12.7183 6.17336C12.7926 6.17344 12.861 6.17351 12.9136 6.1746C13.0888 6.17825 13.2251 6.19106 13.3372 6.22193L13.3527 6.22619L13.3684 6.22945C13.3997 6.23594 13.4286 6.25063 13.4524 6.27204C13.4703 6.28823 13.4848 6.30782 13.4949 6.3296C13.495 6.33504 13.4943 6.34049 13.4931 6.34583L13.4812 6.39667L13.48 6.44888C13.4678 7.00462 13.2893 7.54393 12.9675 7.99718C12.6547 8.43771 12.2205 8.77728 11.7184 8.97481C11.3864 9.03553 11.0815 9.19984 10.8479 9.44494L10.8004 9.49483L10.7681 9.55571C10.5514 9.96461 10.4915 10.4383 10.5991 10.8878C10.6535 11.2517 10.6269 11.6231 10.5211 11.9757C10.491 12.0752 10.4305 12.1629 10.3482 12.2264C10.2763 12.2818 10.191 12.3165 10.1014 12.3271C10.031 12.3088 9.93404 12.2444 9.77446 12.0411C9.71263 11.9624 9.65588 11.8826 9.59135 11.7919C9.56176 11.7503 9.53054 11.7065 9.49644 11.6593C9.39565 11.52 9.27677 11.3628 9.13733 11.2202C8.84937 10.9259 8.50788 10.7536 8.24381 10.6203L8.23516 10.616C7.96188 10.4781 7.76789 10.3783 7.61163 10.2335C7.20743 9.70978 6.95977 9.08207 6.89772 8.423Z" stroke="currentColor"/><path d="M13.4466 16.0927L13.4393 16.029L13.416 15.9691C13.287 15.6371 13.0733 15.3447 12.7963 15.121C12.6007 14.9384 12.4488 14.7139 12.3519 14.4643C12.2566 14.2189 12.2169 13.9554 12.2357 13.693C12.2832 13.488 12.4012 13.3058 12.5694 13.1784C12.7444 13.046 12.9618 12.9821 13.1806 12.9987C13.7549 13.0457 14.0749 13.2065 14.3666 13.4072C14.4425 13.4594 14.5281 13.5244 14.6231 13.5965C14.8724 13.7859 15.1861 14.0243 15.5582 14.2084L15.5786 14.2185L15.5998 14.2266C15.7596 14.2883 15.9067 14.3786 16.034 14.4929C16.0953 14.5723 16.1412 14.6626 16.1692 14.7592C16.1992 14.8626 16.208 14.971 16.1951 15.0779C16.1035 15.6227 15.8451 16.1258 15.4554 16.5177L15.4544 16.5187C14.9734 17.0052 14.5364 17.5332 14.1482 18.0965L14.1359 18.1145L14.1251 18.1334C14.0097 18.3367 13.9123 18.5478 13.8248 18.7373L13.821 18.7457C13.7294 18.944 13.648 19.1197 13.5551 19.2834L13.5498 19.2928L13.5449 19.3024C13.409 19.5679 13.1777 19.7719 12.8977 19.8737C12.8132 19.896 12.7233 19.8877 12.6441 19.85C12.5767 19.8179 12.5209 19.7664 12.4837 19.7025C12.4731 19.6081 12.4759 19.5126 12.4921 19.4188C12.6338 18.6593 12.8757 17.9219 13.2114 17.226C13.4095 16.8835 13.4922 16.4862 13.4466 16.0927Z" stroke="currentColor"/></svg>

<svg xmlns="http://www.w3.org/2000/svg" fill="none" viewBox="0 0 24 24" width="1em" height="1em"><circle cx="12" cy="12" r="9.5" stroke="currentColor"/><path stroke="currentColor" d="m6.898 8.423-.003-.033-.008-.033a4.5 4.5 0 0 0-1.364-2.324 4.204 4.204 0 0 1 .81-1.151c.735-.75 2.056-1.602 4.395-1.866l.008.04c.04.204.044.472.044.716a2.73 2.73 0 0 0 .243 1.711l.011.024.015.023c.344.536.895.62 1.293.638.112.005.252.005.376.005.075 0 .143 0 .196.002.175.003.311.016.423.047l.016.004.015.003a.18.18 0 0 1 .127.1c0 .006 0 .011-.002.017l-.012.05-.001.053a2.78 2.78 0 0 1-1.762 2.526 1.6 1.6 0 0 0-.87.47l-.048.05-.032.06a1.9 1.9 0 0 0-.169 1.333 2.5 2.5 0 0 1-.078 1.088.5.5 0 0 1-.42.351c-.07-.018-.167-.083-.327-.286a7.183 7.183 0 0 1-.183-.25l-.095-.132c-.1-.139-.22-.296-.359-.439-.288-.294-.63-.466-.893-.6l-.009-.004c-.273-.138-.467-.238-.623-.383a3.5 3.5 0 0 1-.714-1.81Zm6.549 7.67-.008-.064-.023-.06a2.04 2.04 0 0 0-.62-.848 1.78 1.78 0 0 1-.56-1.428.9.9 0 0 1 .945-.694c.574.047.894.207 1.186.408.075.052.161.117.256.19.25.189.563.427.935.611l.02.01.022.009c.16.061.307.152.434.266a.8.8 0 0 1 .161.585 2.67 2.67 0 0 1-.74 1.44 11.633 11.633 0 0 0-1.307 1.578l-.012.018-.01.02a7.685 7.685 0 0 0-.301.603l-.004.009a7.26 7.26 0 0 1-.266.537l-.005.01-.005.01a1.18 1.18 0 0 1-.647.57.37.37 0 0 1-.414-.17c-.01-.095-.008-.19.008-.284.142-.76.384-1.497.72-2.193.197-.342.28-.74.235-1.133Z"/></svg>
